X:1
T:At Night the Stars are Flowing
T:At Night the Stars are Flowing
T:Mrest
C:Mrest
%%score { 1 | 2 }
L:1/8
Q:1/4=120
M:4/4
K:E
V:1 treble nm="Piano" snm="Pno."
V:2 bass 
V:1
 e2 d2 e2 f2 | g4 d4 | e2 d2 c2 B2 | B4 d4 | e2 d2 e2 g2 | d4- d2 b2 | !arpeggio![cegc']8- | %7
 [cegc']4!8va(! !arpeggio![ec']2 d'2 | e'2 c'2 g'2 c'2 | e'2 c'2 g'2 c'2 | e'8- | e'4- e'2 c'd' | %12
 e'2 c'2 g'2 c'2 | e'2 c'2 g'2 c'2 | e'8- | e'4 z2 f'e' | d'8!8va)! | !arpeggio![G=c]8- | %18
 !fermata![Gc]4 z2 ^cd | e2 d2 e2 f2 | g4 d4 | e2 d2 c2 B2 | B4 d4 | e2 d2 e2 g2 | d4- d2 b2 | %25
 !arpeggio![cegc']8- | [cegc']4!8va(! d'2 c'd' | e'2 c'2 g'2 c'2 | e'2 c'2 g'2 c'2 | e'8- | %30
 e'4 d'2 c'd' | e'2 c'2 g'2 c'2 | e'2 c'2 g'2 c'2 | e'4- e'2 f'2 | %34
 d'2 c'2 !fermata!d'2 !fermata!e'2!8va)! ||[Q:1/4=125] c'cgc' bcgb | c'cgc' bcgb | gGcg fGcf | %38
 eGce fGcf | c'cgc' bcgb | c'cgc' bcgb | gGcg fGcf | eGce fGcf | c'cgc' bcgb | c'cgc' d'dgd' | %45
 e'ege' d'dgd' | c'cgc' bcgb | c'cgc' bcgb | c'cgc' be'd'b |:[Q:1/4=120] c'4- c'Gcf | e4- e2 d2 | %51
 c4 !arpeggio![Gcf]2 g2 | c4- c2 B2 | c4 G2 F2 | G4 c4 | c4 !arpeggio![Gcf]2 g2 | c4 B4 | %57
 c4 B2 G2 | G4 F4 | c4 !arpeggio![Gcf]2 g2 | c4- c2 f2 | e4 d2 e2 | c4 B4 | c4- c2 d2 | c4 B4 || %65
 c8[Q:1/4=135] | z8 | gceg cegc | gceg cegc | fBef BefB | fBef BefB | gceg cegc | c'ceg cegc | %73
 fBef BefB | fBef gBef | gceg cegc | c'ceg d'egd' | e'gc'e' d'gbd' | c'cec' bBeb | c'cec' bBeb | %80
 c'cec' be'd'b :| [ec']4- [ec']Gdf |[Q:1/4=120] e8 ||[Q:1/4=70] !arpeggio![ceg]8 | %84
 !arpeggio![Bef]8 | !arpeggio![ceg]4- [ceg] c'2- c' | !arpeggio![Bef]8 | %87
 !arpeggio![ceg]4- [ceg] g2- g | !arpeggio![Bef]8 | !arpeggio![ceg]8 | c8- | c8 |] %92
V:2
!8va(! C2 G2 c4 | B,2 F4- F2 | A,2 E2 A4 | G,2 D2 G4 | C2 G2 c4 | B,2 F2 B4 | [A,EA]8 | %7
 z4!>(! [Aea]4!>)! | C2 G2 c4 | B,2 F2 B4 | A,2 E2 A2 B2 | B,2 F2 B4 | C2 G2 c4 | B,2 F2 B4 | %14
 !arpeggio![A,EA]8- | [A,EA]8 | G,2 D2 G2 ^A2 | !arpeggio![G,D]8-!8va)! | !fermata![G,,D,]8 | %19
 C,2 G,2 C4 | B,,2 F,2 B,4 | A,,2 E,2 A,4 | G,,2 D,2 B,4 | C,2 G,2 C4 | B,,2 F,2 B,4 | %25
 A,,2 E,2 A,2 B,2 | B,,2 F,2!>(! B,4!>)! | C,2 G,2 C4 | B,,2 F,2 C4 | A,,2 E,2 A,2 B,2 | %30
 B,,2 F,2 B,4 | C,2 G,2 C2 E2 | B,,2 F,2 C4 | A,,2 E,2 A,4 | G,,2 D,2 G,4 || A,,2 E,2 A,4 | %36
 B,,2 F,2 B,4 | C,2 G,2 C4 | C,2 G,2 C2 E2 | A,,2 E,2 A,4 | B,,2 F,2 B,4 | C,2 G,2 C4 | %42
 C,2 G,2 C2 E2 | A,,2 E,2 A,4 | B,,2 F,2 B,4 | C,2 G,2 C4 | C,2 G,2 C2 E2 | A,,2 E,2 A,4 | %48
 B,,2 F,2 B,4 |: C,2 G,2 C4 | C,2 G,2 C4 | A,,2 E,2 A,4 | B,,2 F,2 B,4 | C,2 G,2 C4 | C,2 G,2 C4 | %55
 A,,2 E,2 A,4 | B,,2 F,2 B,4 | C,2 G,2 C4 | B,,2 F,2 B,4 | A,,2 E,2 A,4 | B,,2 F,2 B,4 | %61
 C,2 G,2 C4 | B,,2 F,2 B,4 | A,,2 E,2 A,4 | B,,2 F,2- F,2 B,2 || C,2 G,C DEFD | EG,DC ECFC | %67
 A,,E,A,B, CA,B,C | A,,E,A,B, CA,B,C | G,,D,G,^A, B,G,A,B, | G,,D,G,^A, B,G,A,B, | %71
 A,,E,A,B, CA,B,C | A,,E,A,B, CA,B,C | G,,D,G,^A, B,G,A,B, | G,,D,G,^A, B,G,A,B, | %75
 A,,E,A,B, CA,B,C | A,,E,A,B, CA,B,C | C,G,CD ECDE | C,G,CD ECDE | A,,E,A,B, CA,B,C | %80
 B,,F,B,C D4 :| C,G,CD E4 | C,G,C!fermata!D !fermata!E4 || [A,,E,]8 | [G,,E,]8 | [A,,E,]8 | %86
 [G,,E,]8 | [A,,E,]8 | [G,,E,]8 | [A,,E,]8 | [B,,F,]8- | [B,,F,]8 |] %92

